X:1
T:’Tis Well
T:’Tis Well
T:Robert Lowry
T:Robert Lowry, 1860
T:Public Domain Courtesy of the Cyber Hymnal™
C:Robert Lowry
Z:Public Domain
Z:Courtesy of the Cyber Hymnal™
%%score ( 1 2 ) ( 3 4 )
L:1/8
Q:1/4=85
M:2/4
K:G
V:1 treble 
V:2 treble 
V:3 bass 
V:4 bass 
V:1
 D | D[GB] [GB][GB] | [GB] [GB]2 [GB] | [Fc]>[FB] [FA]G | [FA]3 [FA] | [FA]>[FA] [FA][GB] | %6
w: 1.~On|ev- ery sun- ny|moun- tain, In|ev- ery gloom- y|dell— What-|e’er the robe that|
w: 2.~What|words of ho- ly|com- fort! Their|sweet- ness who can|tell? With-|in the vale, and|
w: 3.~Tho’|drip- ping clouds may|ga- ther, And|grief the bo- som|swell, The|trust- ing heart will|
w: 4.~And|when the strife is|o- ver, And|hushed the sol- emn|knell, With-|in the gates, a-|
 [Fc]>[Gc] [Ac][Gc] | [Ac][FA] [Bd][Ac] | [GB]3 |:"^Refrain" D | [GB]3 D | [GB]3 [GB] | %12
w: wraps the heart, ’Tis|with the right- eous|well.||||
w: o’er the flood, ’Tis|with the right- eous|well.|’Tis|well, ’tis|well, ’Tis|
w: ev- er sing— ’Tis|with the righte- ous|well.||||
w: round the throne, ’Tis|with the right- eous|well.||||
 [Fc][GB] [DA][EG] | [FA]3 [FA] | [FA][FA] [FA][GB] |1 [Fc][Gc] [Ac][Gc] | [Fd]>[Ac] [GB][FA] | %17
w: |||||
w: with the right- eous|well; In|plea- sure’s light, and|sor- row’s night, ’Tis|with the right- eous|
w: |||||
w: |||||
 [GB]3 :|2 [Ac][Ac] !fermata![Ge][DG] ||"^rit." [GB]>[FA] [DG][DF] | [DG]3 |] %21
w: ||||
w: well.|sor- row’s night, ’Tis|with the right- eous|well.|
w: ||||
w: ||||
V:2
 D | D x3 | x4 | x3 G | x4 | x4 | x4 | x4 | x3 |: D | x3 D | x4 | x4 | x4 | x4 |1 x4 | x4 | x3 :|2 %18
 x4 || x4 | x3 |] %21
V:3
 G, | [G,B,][G,D] [G,D][G,D] | [G,D] [G,D]2 [G,D] | [A,D]>[G,D] [D,D][E,^C] | [D,D]3 [D,D] | %5
w: ’tis|||||
 [D,D]>[D,D] [D,D][G,D] | [A,D]>[G,D] [F,D][E,D] | [D,D][D,D] [D,D][D,D] | [G,D]3 |: z | %10
w: |||||
 z [G,D] [G,D] z | z [G,D] [G,D][G,D] | [A,D][G,D] [F,C][E,^C] | [D,D]3 [D,D] | %14
w: well, ’tis|well, * *|||
 [D,D][D,D] [D,D][G,D] |1 [A,D][A,D] [G,D][E,D] | [D,D]>[D,D] [D,D][D,D] | [G,D]3 :|2 %18
w: ||||
 [C,E][C,E] !fermata![C,C][G,B,] || [G,D]>[D,C] [D,B,][D,A,] | [G,,B,]3 |] %21
w: |||
V:4
 G, | x4 | x4 | x4 | x4 | x4 | x4 | x4 | x3 |: x | x4 | x4 | x4 | x4 | x4 |1 x4 | x4 | x3 :|2 x4 || %19
 x4 | x3 |] %21

